Sources/FrostedUI/Resources/Icons.xcassets/fullScreen16.imageset/full-screen-16.svg

<svg width="16" height="16" viewBox="0 0 16 16" fill="none" xmlns="http://www.w3.org/2000/svg" data-fui-icon="true">
  <path
    d="M2 9.8584C2.41411 9.8584 2.74984 10.1943 2.75 10.6084V11C2.75 12.2426 3.75736 13.25 5 13.25H5.59961C6.01382 13.25 6.34961 13.5858 6.34961 14C6.34961 14.4142 6.01382 14.75 5.59961 14.75H5C2.92893 14.75 1.25 13.0711 1.25 11V10.6084C1.25016 10.1943 1.58589 9.8584 2 9.8584ZM14 9.8584C14.4141 9.8584 14.7498 10.1943 14.75 10.6084V11C14.75 13.0711 13.0711 14.75 11 14.75H10.4004C9.98618 14.75 9.65039 14.4142 9.65039 14C9.65039 13.5858 9.98618 13.25 10.4004 13.25H11C12.2426 13.25 13.25 12.2426 13.25 11V10.6084C13.2502 10.1943 13.5859 9.8584 14 9.8584ZM5.59961 1.25C6.01382 1.25 6.34961 1.58579 6.34961 2C6.34961 2.41421 6.01382 2.75 5.59961 2.75H5C3.75736 2.75 2.75 3.75736 2.75 5V5.3916C2.74984 5.80568 2.41411 6.1416 2 6.1416C1.58589 6.1416 1.25016 5.80568 1.25 5.3916V5C1.25 2.92893 2.92893 1.25 5 1.25H5.59961ZM11 1.25C13.0711 1.25 14.75 2.92893 14.75 5V5.3916C14.7498 5.80568 14.4141 6.1416 14 6.1416C13.5859 6.1416 13.2502 5.80568 13.25 5.3916V5C13.25 3.75736 12.2426 2.75 11 2.75H10.4004C9.98618 2.75 9.65039 2.41421 9.65039 2C9.65039 1.58579 9.98618 1.25 10.4004 1.25H11Z"
    fill="currentColor"
  />
</svg>

<svg xmlns="http://www.w3.org/2000/svg" width="16" height="16" fill="none" data-fui-icon="true" viewBox="0 0 16 16"><path fill="currentColor" d="M2 9.858a.75.75 0 0 1 .75.75V11A2.25 2.25 0 0 0 5 13.25h.6a.75.75 0 0 1 0 1.5H5A3.75 3.75 0 0 1 1.25 11v-.392a.75.75 0 0 1 .75-.75m12 0a.75.75 0 0 1 .75.75V11A3.75 3.75 0 0 1 11 14.75h-.6a.75.75 0 0 1 0-1.5h.6A2.25 2.25 0 0 0 13.25 11v-.392a.75.75 0 0 1 .75-.75M5.6 1.25a.75.75 0 0 1 0 1.5H5A2.25 2.25 0 0 0 2.75 5v.392a.75.75 0 0 1-1.5 0V5A3.75 3.75 0 0 1 5 1.25zm5.4 0A3.75 3.75 0 0 1 14.75 5v.392a.75.75 0 0 1-1.5 0V5A2.25 2.25 0 0 0 11 2.75h-.6a.75.75 0 1 1 0-1.5z"/></svg>
